X: 12
T:Farewell to Erin
R:Hornpipe
M:2/4
L:1/16
K:Hp
AAAB eeef | gedB GABG | AAAB eeef | gedg eA(3AAA |
AAAB eeef | gedB G2g2 | edeg a2ea | gedg eA(3AAA :|
a3g agef | g2af gedg | eaag agef | gedg eA(3AAA |
agef gage | dcdB GABd | (3cBAeA Bdef | gedg eA(3AAA :|
eA(3AAA eA(3AAA | (3BcddB GABd | eA(3AAA ed(3Bcd | gedB GABd |
eA(3AAA eA(3AAA | (3BcddB G2g2 | edeg a2ea | gedg aA(3AAA :|
aece aece | gdBd gdBd | aece aeca | gedg eA(3AAA |
agef gage | dcdB GABd | (3cBAeA Bdef | gedg eA(3AAA :|

